_src/img/svg/proc.svg

<svg width="20" height="26" viewBox="0 0 20 26" fill="none" xmlns="http://www.w3.org/2000/svg">
<path d="M4.79158 0.853183C2.94404 0.928073 1.49901 2.48259 1.56404 4.32526C1.62907 6.16794 3.17954 7.60103 5.02709 7.52614C6.87463 7.45125 8.31966 5.89673 8.25463 4.05406C8.1896 2.21138 6.63913 0.778292 4.79158 0.853183ZM4.96821 5.8579C4.04439 5.89535 3.26921 5.17885 3.23669 4.25746C3.20417 3.33607 3.92664 2.55887 4.85046 2.52142C5.77428 2.48397 6.54946 3.20047 6.58198 4.12186C6.6145 5.04325 5.89203 5.82045 4.96821 5.8579Z" fill="#FF4940"/>
<path d="M15.1807 10.4558C13.3332 10.5307 11.8882 12.0852 11.9532 13.9279C12.0182 15.7706 13.5687 17.2037 15.4162 17.1288C17.2638 17.0539 18.7088 15.4994 18.6438 13.6567C18.5788 11.814 17.0283 10.3809 15.1807 10.4558ZM15.3574 15.4605C14.4335 15.498 13.6584 14.7815 13.6258 13.8601C13.5933 12.9387 14.3158 12.1615 15.2396 12.1241C16.1634 12.0866 16.9386 12.8031 16.9711 13.7245C17.0037 14.6459 16.2812 15.4231 15.3574 15.4605Z" fill="#FF4940"/>
<path d="M15.3759 2.09318L3.60727 14.7534C3.29211 15.0925 3.3107 15.6206 3.6488 15.9331C3.9869 16.2456 4.51647 16.2241 4.83163 15.8851L16.6002 3.22485C16.9154 2.88581 16.8968 2.35763 16.5587 2.04513C16.2206 1.73262 15.691 1.75414 15.3759 2.09318Z" fill="#FF4940"/>
<path d="M18.7629 23.3568L1.49877 23.678C1.03777 23.6866 0.669 24.0672 0.675092 24.5282C0.681183 24.9892 1.05983 25.3559 1.52082 25.3473L18.7849 25.0261C19.2459 25.0175 19.6147 24.6369 19.6086 24.1759C19.6025 23.7149 19.2238 23.3482 18.7629 23.3568Z" fill="#FF4940"/>
</svg>

<svg width="20" height="26" fill="none" xmlns="http://www.w3.org/2000/svg"><path d="M4.792.853a3.365 3.365 0 00-3.228 3.472 3.322 3.322 0 003.463 3.201 3.365 3.365 0 003.228-3.472 3.322 3.322 0 00-3.463-3.2zm.176 5.005a1.661 1.661 0 01-1.731-1.6A1.682 1.682 0 014.85 2.52a1.661 1.661 0 011.732 1.6 1.682 1.682 0 01-1.614 1.737zm10.212 4.598a3.365 3.365 0 00-3.227 3.472 3.322 3.322 0 003.463 3.2 3.365 3.365 0 003.228-3.471 3.322 3.322 0 00-3.463-3.201zm.177 5.005a1.661 1.661 0 01-1.731-1.6 1.682 1.682 0 011.614-1.737 1.661 1.661 0 011.731 1.6 1.682 1.682 0 01-1.614 1.736zm.019-13.368L3.607 14.753a.833.833 0 101.225 1.132L16.6 3.225a.833.833 0 10-1.224-1.132zm3.387 21.264l-17.264.321a.84.84 0 00-.824.85.83.83 0 00.846.82l17.264-.322a.84.84 0 00.824-.85.83.83 0 00-.846-.82z" fill="#FF4940"/></svg>
